X: 2016
T: ANNA IS MY DARLING
R: Reel.
%R: reel
B: James Kerr "Merry Melodies" v.2 p.5 #16
Z: 2016 John Chambers <jc:trillian.mit.edu>
M: C
L: 1/8
K: A
uc |\
A2(AE) CEAB | cdBc AFFG |\
A/A/A (AE) CEAB | cAec TB2A :|\
ud |\
(ce)Te2 (cf)Tf2 | ecBA BFFd |
(ce)Te2 cefg | agfe fefg |\
agfe fgaf | ecdB cAFA |\
GAEA CEA,e | cAec TB2A |]

%%sep 1 1 500
%%sep 1 1 500

